Yaru++/apps/16/preferences-other.svg

<svg height="16" width="16" xmlns="http://www.w3.org/2000/svg">
  <path d="m12.208984.02929688c-.19625.01125-.394843.03884375-.589843.08984374-1.8660004.48500001-2.9820941 2.38042188-2.4960941 4.23242188a3.483 3.483 0 0 0 .5019531 1.0546875c-.108.017-1.6269531 2.59375-1.6269531 2.59375l3.4101561.0234375.802735-1.1152344c.379999.03.779921.0199688 1.169921-.0820312 1.865-.485 2.982094-2.3804219 2.496094-4.2324219-.102-.388-.289953-.7396875-.501953-1.0546875l-1.359375 2.3066406a.99.99 0 0 1 -1.357422.3535157l-.875-.5078126a.975.975 0 0 1 -.353515-1.3476562l1.359374-2.30664062c-.189999-.015-.383828-.0190625-.580078-.0078125zm-8.6093746.68945312c-.23.047-.44425.13075-.65625.21875-.017.624.08675 1.44225-.15625 1.65625-.239.21-1.0353438.03375-1.6523438-.03125a3.63 3.63 0 0 0 -.31249998.75c.47699998.396 1.13829688.83925 1.15429688 1.15625.015.321-.6255469.805-1.06054688 1.25.10299998.258.24929688.49375.40429688.71875.608-.127 1.3650469-.3735 1.6230469-.1875.263.19.26575 1.006.34375 1.625.25.075.5112968.105.7792968.125.281-.554.568-1.32025.875-1.40625.3150001-.089.9620469.45825 1.4980469.78125.218-.151.4107969-.3362969.5917969-.5292969-.254-.573-.7187969-1.2937031-.5917969-1.5957031s.9725938-.4705 1.5585938-.6875c.004-.074.03125-.14375.03125-.21875 0-.191-.0325469-.3795-.0605469-.5625-.605-.161-1.4650469-.24125-1.6230469-.53125-.156-.288.2405469-1.06125.4355469-1.65625a3.682 3.682 0 0 0 -.6542969-.46875c-.5.375-1.0832968.9945-1.4042969.9375-.317-.056-.6610468-.81975-.9980468-1.34375-.04.007-.085-.008-.125 0zm.6035156 1.875a1.686 1.686 0 0 1 .0195312 0c.93 0 1.6855469.7555 1.6855469 1.6875a1.686 1.686 0 1 1 -1.7050781-1.6875zm8.501953 6.3398438c-.087078.0107187-.164703.0324062-.220703.0664062h-9.0820312c-.2522596-.0950494-.7215999-.0432716-.9335938.1796875l-2.16210938 2.1171875c-.19099999.174-.30068749.479125-.30468749.703125-.05200001.887 1.00167187 1.320922 1.63867187.794922l1.359375-1.333984.0058594 3.539062a.996.996 0 0 0 .9980468 1h7.9921878c.523 0 .99414-.4455.99414-.9375l-.003906-3.603516 1.335938 1.3125c.638.527 1.692625.092079 1.640625-.794922-.005-.223999-.114641-.529124-.306641-.703124l-2.160156-2.117188c-.17475-.183-.529782-.2548125-.791016-.2226562z" fill="#808080"/>
</svg>

<svg xmlns="http://www.w3.org/2000/svg" width="16" height="16" version="1.1">
 <g transform="translate(-871.998 -443.948)">
  <path style="fill:#808080" d="M 12.208984 0.029296875 C 12.012734 0.040546875 11.814141 0.068140625 11.619141 0.11914062 C 9.7531406 0.60414063 8.6370469 2.4995625 9.1230469 4.3515625 A 3.483 3.483 0 0 0 9.625 5.40625 C 9.517 5.42325 7.9980469 8 7.9980469 8 L 11.408203 8.0234375 L 12.210938 6.9082031 C 12.590937 6.9382031 12.990859 6.9281719 13.380859 6.8261719 C 15.245859 6.3411719 16.362953 4.44575 15.876953 2.59375 C 15.774953 2.20575 15.587 1.8540625 15.375 1.5390625 L 14.015625 3.8457031 A 0.99 0.99 0 0 1 12.658203 4.1992188 L 11.783203 3.6914062 A 0.975 0.975 0 0 1 11.429688 2.34375 L 12.789062 0.037109375 C 12.599063 0.022109375 12.405234 0.018046875 12.208984 0.029296875 z M 3.5996094 0.71875 C 3.3696094 0.76575 3.1553594 0.8495 2.9433594 0.9375 C 2.9263594 1.5615 3.0301094 2.37975 2.7871094 2.59375 C 2.5481094 2.80375 1.7517656 2.6275 1.1347656 2.5625 A 3.63 3.63 0 0 0 0.82226562 3.3125 C 1.2992656 3.7085 1.9605625 4.15175 1.9765625 4.46875 C 1.9915625 4.78975 1.3510156 5.27375 0.91601562 5.71875 C 1.0190156 5.97675 1.1653125 6.2125 1.3203125 6.4375 C 1.9283125 6.3105 2.6853594 6.064 2.9433594 6.25 C 3.2063594 6.44 3.2091094 7.256 3.2871094 7.875 C 3.5371094 7.95 3.7984062 7.98 4.0664062 8 C 4.3474062 7.446 4.6344062 6.67975 4.9414062 6.59375 C 5.2564063 6.50475 5.9034531 7.052 6.4394531 7.375 C 6.6574531 7.224 6.85025 7.0387031 7.03125 6.8457031 C 6.77725 6.2727031 6.3124531 5.552 6.4394531 5.25 C 6.5664531 4.948 7.4120469 4.7795 7.9980469 4.5625 C 8.0020469 4.4885 8.0292969 4.41875 8.0292969 4.34375 C 8.0292969 4.15275 7.99675 3.96425 7.96875 3.78125 C 7.36375 3.62025 6.5037031 3.54 6.3457031 3.25 C 6.1897031 2.962 6.58625 2.18875 6.78125 1.59375 A 3.682 3.682 0 0 0 6.1269531 1.125 C 5.6269531 1.5 5.0436563 2.1195 4.7226562 2.0625 C 4.4056562 2.0065 4.0616094 1.24275 3.7246094 0.71875 C 3.6846094 0.72575 3.6396094 0.71075 3.5996094 0.71875 z M 4.203125 2.59375 A 1.686 1.686 0 0 1 4.2226562 2.59375 C 5.1526562 2.59375 5.9082031 3.34925 5.9082031 4.28125 A 1.686 1.686 0 1 1 4.203125 2.59375 z M 12.705078 8.9335938 C 12.618 8.9443125 12.540375 8.966 12.484375 9 L 3.4023438 9 C 3.1500842 8.9049506 2.6807439 8.9567284 2.46875 9.1796875 L 0.30664062 11.296875 C 0.11564063 11.470875 0.005953125 11.776 0.001953125 12 C -0.050046875 12.887 1.003625 13.320922 1.640625 12.794922 L 3 11.460938 L 3.0058594 15 A 0.996 0.996 0 0 0 4.0039062 16 L 11.996094 16 C 12.519094 16 12.990234 15.5545 12.990234 15.0625 L 12.986328 11.458984 L 14.322266 12.771484 C 14.960266 13.298484 16.014891 12.863563 15.962891 11.976562 C 15.957891 11.752563 15.84825 11.447438 15.65625 11.273438 L 13.496094 9.15625 C 13.321344 8.97325 12.966312 8.9014375 12.705078 8.9335938 z" transform="translate(871.998,443.948)"/>
 </g>
</svg>
